public/img/events/sheogorath.svg

<svg width="200" height="200" viewBox="0 0 200 200" fill="none" xmlns="http://www.w3.org/2000/svg">
<path d="M43.6855 39.606C45.4408 42.0482 46.091 44.5555 46.156 47.5512C46.221 50.3841 46.9362 52.9565 49.0816 54.9103C53.0475 58.4921 58.9312 59.0782 63.9698 59.7946C69.366 60.5761 74.9247 61.3576 79.3781 64.7766C83.7666 68.1305 87.3098 72.6566 92.9661 73.8289C95.7942 74.415 98.8823 74.1871 101.353 72.4938C104.018 70.6378 105.384 67.6746 106.196 64.6463C107.009 61.6181 102.328 60.3156 101.483 63.3439C100.93 65.3953 100.118 67.8049 98.0372 68.7817C96.1843 69.6609 93.9413 69.2376 92.1209 68.4887C87.6349 66.6326 84.6118 62.3019 80.5809 59.6969C76.3875 56.9617 71.4464 56.0174 66.6029 55.301C62.247 54.6498 56.8508 54.4869 53.1125 51.9145C50.7395 50.2864 51.1946 48.0396 50.967 45.4998C50.707 42.5041 49.6667 39.6386 47.9114 37.1639C47.1312 36.0893 45.7984 35.6009 44.5631 36.2847C43.4904 36.8708 42.9053 38.5315 43.6855 39.606Z" fill="black"/>
<path d="M59.2238 61.2273C64.0349 68.0653 72.4867 71.4518 80.6785 69.6609C83.7341 69.0096 82.4338 64.2881 79.3782 64.9394C73.4619 66.2093 66.928 63.702 63.4172 58.7525C61.6294 56.2127 57.4034 58.6549 59.2238 61.2273Z" fill="black"/>
<path d="M92.706 75.522C94.6889 82.6531 96.7368 89.9145 96.8994 97.4038C97.0294 104.763 94.8514 112.024 96.5743 119.351C97.2894 122.412 102.003 121.109 101.288 118.048C99.5974 110.885 102.068 103.428 101.743 96.1664C101.418 88.6771 99.4349 81.4158 97.4195 74.2195C96.5418 71.1913 91.8608 72.4937 92.706 75.522Z" fill="black"/>
<path d="M85.8795 105.968C84.0916 107.4 82.4663 109.159 82.3362 111.568C82.2062 113.685 83.3765 115.541 85.2619 116.485C86.7897 117.267 88.4476 117.332 89.6503 118.667C91.1131 120.263 92.3809 121.956 94.0388 123.356C97.2244 126.059 101.19 128.045 105.449 127.915C109.512 127.784 113.218 125.993 115.558 122.64C117.346 120.035 113.12 117.592 111.332 120.165C107.887 125.147 100.768 122.802 97.0619 119.546C94.8514 117.592 93.2911 114.629 90.593 113.327C89.9754 113.034 89.2927 112.806 88.6426 112.578C88.3175 112.48 87.4724 112.35 87.2773 112.057C86.7247 111.21 88.7401 109.875 89.2927 109.419C90.333 108.573 90.1379 106.847 89.2927 105.968C88.3175 104.958 86.9197 105.154 85.8795 105.968Z" fill="black"/>
<path d="M78.8256 101.604C72.7142 99.4553 65.2701 102.158 62.0845 107.889C58.9313 113.587 60.4266 121.37 65.4977 125.44C66.5379 126.287 67.9357 126.417 68.9434 125.44C69.8211 124.593 69.9512 122.802 68.9434 121.988C65.5627 119.286 64.1324 114.271 66.3104 110.331C68.4883 106.424 73.3969 104.861 77.5253 106.293C80.4834 107.368 81.7512 102.646 78.8256 101.604Z" fill="black"/>
<path d="M47.944 66.6001C41.5726 68.1305 36.6315 74.4801 37.0216 81.1228C37.4767 89.1982 44.1731 94.3756 50.2845 98.6087C52.885 100.4 55.323 96.1665 52.755 94.3756C48.269 91.2822 42.6128 87.4073 41.9302 81.481C41.3775 76.8246 44.7908 72.3636 49.2442 71.289C52.2674 70.5726 50.9996 65.8511 47.944 66.6001Z" fill="black"/>
<path d="M106.424 135.632C103.596 135.925 100.768 136.251 97.9397 136.023C95.0141 135.795 92.6411 134.622 90.3006 132.897C87.8626 131.073 85.5546 129.282 82.6289 128.273C79.9309 127.361 76.7127 127.068 73.9496 127.85C67.8058 129.575 66.863 136.739 70.5038 141.363C72.2917 143.61 74.7948 145.042 77.3628 146.215C80.2884 147.582 83.2791 148.852 86.3347 149.927C93.1612 152.336 100.475 153.574 107.627 151.88C110.682 151.164 109.382 146.443 106.327 147.159C101.028 148.396 95.6317 147.68 90.4956 146.149C87.8951 145.368 85.327 144.424 82.824 143.349C80.5485 142.372 78.1755 141.428 76.1275 140.028C74.5022 138.888 72.9744 137.097 73.1694 134.981C73.3644 132.799 75.5424 132.343 77.3628 132.343C82.8565 132.311 85.9447 136.413 90.3981 138.823C95.3392 141.526 101.028 141.102 106.457 140.549C107.757 140.419 108.895 139.539 108.895 138.107C108.862 136.837 107.724 135.469 106.424 135.632Z" fill="black"/>
<path d="M59.5166 140.614C60.3293 145.14 62.9949 148.982 66.7982 151.555C69.3988 153.313 71.8368 149.08 69.2687 147.322C66.5056 145.466 64.8153 142.568 64.2302 139.311C63.6775 136.251 58.964 137.553 59.5166 140.614Z" fill="black"/>
<path d="M87.5049 179.07C90.7881 187.536 95.3065 197.695 105.254 199.714C113.836 201.44 121.962 195.123 123.913 186.852C124.628 183.791 119.914 182.489 119.199 185.55C117.801 191.541 111.918 196.556 105.611 194.765C98.0696 192.648 94.7864 184.345 92.2184 177.767C91.7308 176.53 90.593 175.683 89.2277 176.074C88.025 176.4 87.0173 177.832 87.5049 179.07Z" fill="black"/>
<path d="M151.121 37.1313C149.626 39.2479 148.585 41.69 148.228 44.2624C147.903 46.4441 148.553 49.1793 146.993 50.9703C145.692 52.4356 143.612 53.1194 141.791 53.6078C139.353 54.259 136.85 54.6172 134.347 54.9754C129.471 55.6918 124.53 56.3756 120.109 58.6875C115.688 60.9994 112.73 65.1674 108.472 67.6421C106.554 68.7818 104.018 69.6609 101.808 69.0097C99.2398 68.2608 98.2646 65.6232 97.6144 63.2788C96.8018 60.2505 92.0882 61.5204 92.9009 64.5812C94.3637 69.9214 97.972 74.4476 103.986 74.0568C109.805 73.6987 113.868 69.7261 118.029 66.1117C120.077 64.3207 122.287 62.8229 124.855 61.8786C127.456 60.9668 130.186 60.4784 132.917 60.0551C138.021 59.2736 143.937 59.0131 148.39 56.05C150.893 54.3893 152.486 52.0448 152.811 49.0165C153.006 47.2907 152.811 45.5975 153.234 43.9043C153.624 42.3087 154.372 40.9085 155.347 39.5735C157.135 37.0336 152.909 34.5915 151.121 37.1313Z" fill="black"/>
<path d="M135.55 58.7525C132.04 63.7346 125.506 66.2418 119.589 64.9394C116.534 64.2881 115.233 68.9771 118.289 69.6609C126.481 71.4192 134.933 68.0653 139.744 61.2273C141.564 58.6549 137.338 56.2127 135.55 58.7525Z" fill="black"/>
<path d="M101.613 74.2195C99.6299 81.3832 97.647 88.6771 97.2894 96.1664C96.9643 103.428 99.4349 110.885 97.7445 118.048C97.0294 121.109 101.71 122.412 102.458 119.351C104.181 112.024 102.003 104.763 102.133 97.4038C102.263 89.9471 104.343 82.6857 106.326 75.522C107.139 72.4937 102.426 71.1913 101.613 74.2195Z" fill="black"/>
<path d="M109.642 109.419C110.097 109.778 112.21 111.243 111.723 112.024C111.333 112.676 109.22 112.936 108.537 113.262C105.741 114.532 104.149 117.592 101.906 119.579C98.2323 122.835 91.0808 125.179 87.6351 120.197C85.8472 117.625 81.6213 120.067 83.4091 122.672C85.7171 126.026 89.4554 127.85 93.5188 127.947C97.8097 128.077 101.743 126.091 104.929 123.389C106.587 121.988 107.854 120.295 109.317 118.7C110.52 117.365 112.145 117.299 113.706 116.518C115.494 115.606 116.664 113.848 116.631 111.829C116.599 109.322 114.908 107.466 113.056 106C112.015 105.154 110.617 104.991 109.61 106C108.797 106.814 108.635 108.605 109.642 109.419Z" fill="black"/>
<path d="M121.475 106.326C125.603 104.893 130.512 106.424 132.69 110.364C134.868 114.304 133.405 119.286 130.057 122.021C129.017 122.867 129.212 124.593 130.057 125.472C131.065 126.514 132.495 126.286 133.503 125.472C138.574 121.37 140.069 113.62 136.916 107.921C133.763 102.19 126.286 99.5204 120.175 101.637C117.249 102.646 118.517 107.368 121.475 106.326Z" fill="black"/>
<path d="M149.756 71.3216C154.209 72.3961 157.623 76.8571 157.07 81.5135C156.387 87.4398 150.731 91.3147 146.245 94.4081C143.677 96.1991 146.115 100.432 148.716 98.6412C154.827 94.4081 161.523 89.2308 161.979 81.1553C162.369 74.5127 157.428 68.1956 151.056 66.6326C148.001 65.8837 146.7 70.5726 149.756 71.3216Z" fill="black"/>
<path d="M107.432 140.288C111.463 138.921 114.291 135.86 117.931 133.808C120.239 132.506 123.88 131.562 126.448 132.701C129.829 134.232 126.903 138.465 125.051 139.865C121.312 142.698 116.339 144.326 111.95 145.694C106.359 147.452 100.54 148.494 94.754 147.126C91.6983 146.41 90.3981 151.099 93.4537 151.848C99.6951 153.313 106.034 152.564 112.113 150.773C117.574 149.145 123.718 147.094 128.236 143.512C132.007 140.549 134.543 135.013 131.357 130.65C128.789 127.101 123.815 126.97 119.914 127.85C117.476 128.403 115.266 129.543 113.25 131.008C110.975 132.636 108.83 134.655 106.131 135.534C103.173 136.576 104.441 141.298 107.432 140.288Z" fill="black"/>
<path d="M136.07 137.879C135.68 141.135 133.73 144.131 131.032 145.922C128.431 147.68 130.869 151.913 133.502 150.155C137.761 147.289 140.329 142.958 140.946 137.879C141.109 136.576 139.711 135.437 138.508 135.437C137.078 135.437 136.233 136.576 136.07 137.879Z" fill="black"/>
<path d="M107.594 177.767C105.026 184.345 101.743 192.648 94.2012 194.765C87.8624 196.556 82.0111 191.541 80.6133 185.55C79.8981 182.489 75.1846 183.791 75.8998 186.852C77.8177 195.123 85.977 201.44 94.5588 199.714C104.506 197.695 108.992 187.536 112.308 179.07C112.795 177.832 111.787 176.4 110.617 176.074C109.219 175.651 108.049 176.53 107.594 177.767Z" fill="black"/>
<path d="M101.19 3.07127C102.003 8.05329 97.2894 11.8956 93.4861 14.0122C89.1627 16.4218 84.0591 17.8871 80.6458 21.6317C79.0855 23.3575 77.9152 25.5066 77.8827 27.8836C77.8502 30.2932 79.0205 32.3447 80.2883 34.2984C81.5235 36.2196 82.4337 37.9454 81.5885 40.2573C80.7108 42.6669 78.7279 44.6532 76.94 46.4115C74.697 48.6258 78.1428 52.0773 80.3858 49.8631C84.1241 46.151 88.2525 41.0388 86.3671 35.4055C85.5869 33.0936 83.669 31.3678 82.9213 29.0559C82.2387 26.9068 83.8315 25.0833 85.3918 23.8459C87.4723 22.1853 90.0403 21.1433 92.4134 20.0036C94.9814 18.7662 97.4844 17.4638 99.7274 15.7054C104.051 12.3515 106.814 7.30436 105.904 1.76879C105.384 -1.32462 100.703 -0.0221329 101.19 3.07127Z" fill="black"/>
<path d="M100.41 123.714C103.563 123.714 103.563 118.83 100.41 118.83C97.257 118.83 97.257 123.714 100.41 123.714Z" fill="black"/>
</svg>

<svg xmlns="http://www.w3.org/2000/svg" width="200" height="200" fill="none"><path fill="#000" d="M43.686 39.606c1.755 2.442 2.405 4.95 2.47 7.945.065 2.833.78 5.405 2.926 7.36 3.965 3.581 9.85 4.167 14.888 4.884 5.396.781 10.955 1.563 15.408 4.982 4.389 3.353 7.932 7.88 13.588 9.052 2.828.586 5.916.358 8.387-1.335 2.665-1.856 4.031-4.82 4.843-7.848s-3.868-4.33-4.713-1.302c-.553 2.051-1.365 4.46-3.446 5.438-1.853.879-4.096.456-5.916-.293-4.486-1.856-7.51-6.187-11.54-8.792-4.193-2.735-9.135-3.68-13.978-4.396-4.356-.651-9.752-.814-13.49-3.387-2.373-1.628-1.918-3.874-2.146-6.414a16.9 16.9 0 0 0-3.056-8.336c-.78-1.075-2.113-1.563-3.348-.88-1.073.587-1.658 2.248-.878 3.322"/><path fill="#000" d="M59.224 61.227c4.81 6.838 13.263 10.225 21.455 8.434 3.055-.651 1.755-5.373-1.3-4.722-5.917 1.27-12.451-1.237-15.962-6.186-1.788-2.54-6.014-.098-4.193 2.474M92.706 75.522c1.983 7.131 4.03 14.392 4.193 21.882.13 7.359-2.048 14.62-.325 21.947.715 3.061 5.429 1.758 4.714-1.303-1.69-7.163.78-14.62.455-21.882-.325-7.489-2.308-14.75-4.323-21.946-.878-3.029-5.56-1.726-4.714 1.302"/><path fill="#000" d="M85.88 105.968c-1.788 1.432-3.414 3.191-3.544 5.6-.13 2.117 1.04 3.973 2.926 4.917 1.528.782 3.186.847 4.388 2.182 1.463 1.596 2.73 3.289 4.389 4.689 3.185 2.703 7.151 4.689 11.41 4.559 4.063-.131 7.769-1.922 10.109-5.275 1.788-2.605-2.438-5.048-4.226-2.475-3.445 4.982-10.564 2.637-14.27-.619-2.21-1.954-3.77-4.917-6.469-6.219-.618-.293-1.3-.521-1.95-.749-.326-.098-1.17-.228-1.366-.521-.552-.847 1.463-2.182 2.016-2.638 1.04-.846.845-2.572 0-3.451-.976-1.01-2.373-.814-3.414 0M78.826 101.604c-6.112-2.149-13.556.554-16.741 6.285-3.154 5.698-1.658 13.481 3.413 17.551 1.04.847 2.438.977 3.445 0 .878-.847 1.008-2.638 0-3.452-3.38-2.702-4.81-7.717-2.633-11.657 2.178-3.907 7.087-5.47 11.215-4.038 2.958 1.075 4.226-3.647 1.3-4.689M47.944 66.6c-6.371 1.53-11.312 7.88-10.922 14.523.455 8.075 7.151 13.253 13.263 17.486 2.6 1.791 5.038-2.442 2.47-4.233-4.486-3.094-10.142-6.969-10.825-12.895-.553-4.656 2.86-9.117 7.314-10.192 3.023-.716 1.756-5.438-1.3-4.689M106.424 135.632c-2.828.293-5.656.619-8.484.391-2.926-.228-5.299-1.401-7.64-3.126-2.437-1.824-4.745-3.615-7.671-4.624-2.698-.912-5.916-1.205-8.68-.423-6.143 1.725-7.086 8.889-3.445 13.513 1.788 2.247 4.29 3.679 6.859 4.852 2.925 1.367 5.916 2.637 8.972 3.712 6.826 2.409 14.14 3.647 21.292 1.953 3.055-.716 1.755-5.437-1.3-4.721-5.299 1.237-10.695.521-15.831-1.01a72 72 0 0 1-7.672-2.8c-2.275-.977-4.648-1.921-6.696-3.321-1.626-1.14-3.154-2.931-2.959-5.047.195-2.182 2.373-2.638 4.194-2.638 5.493-.032 8.582 4.07 13.035 6.48 4.941 2.703 10.63 2.279 16.059 1.726 1.3-.13 2.438-1.01 2.438-2.442-.033-1.27-1.171-2.638-2.471-2.475M59.517 140.614c.812 4.526 3.478 8.368 7.281 10.941 2.6 1.758 5.039-2.475 2.47-4.233-2.762-1.856-4.453-4.754-5.038-8.011-.553-3.06-5.266-1.758-4.713 1.303M87.505 179.07c3.283 8.466 7.802 18.625 17.749 20.644 8.582 1.726 16.708-4.591 18.659-12.862.715-3.061-3.999-4.363-4.714-1.302-1.398 5.991-7.281 11.006-13.588 9.215-7.541-2.117-10.825-10.42-13.393-16.998-.487-1.237-1.625-2.084-2.99-1.693-1.203.326-2.21 1.758-1.723 2.996M151.121 37.131c-1.495 2.117-2.536 4.559-2.893 7.131-.325 2.182.325 4.917-1.235 6.708-1.301 1.466-3.381 2.15-5.202 2.638-2.438.651-4.941 1.01-7.444 1.367-4.876.717-9.817 1.4-14.238 3.712s-7.379 6.48-11.637 8.955c-1.918 1.14-4.454 2.019-6.664 1.368-2.568-.75-3.543-3.387-4.194-5.731-.812-3.029-5.526-1.759-4.713 1.302 1.463 5.34 5.071 9.867 11.085 9.476 5.819-.358 9.882-4.33 14.043-7.945 2.048-1.791 4.258-3.29 6.826-4.233 2.601-.912 5.331-1.4 8.062-1.824 5.104-.781 11.02-1.042 15.473-4.005 2.503-1.66 4.096-4.005 4.421-7.033.195-1.726 0-3.42.423-5.113.39-1.595 1.138-2.996 2.113-4.33 1.788-2.54-2.438-4.982-4.226-2.443"/><path fill="#000" d="M135.55 58.753c-3.51 4.982-10.044 7.489-15.961 6.186-3.055-.65-4.356 4.038-1.3 4.722 8.192 1.758 16.644-1.596 21.455-8.434 1.82-2.572-2.406-5.014-4.194-2.474M101.613 74.22c-1.983 7.163-3.966 14.457-4.324 21.946-.325 7.262 2.146 14.719.456 21.882-.716 3.061 3.965 4.364 4.713 1.303 1.723-7.327-.455-14.588-.325-21.947.13-7.457 2.21-14.718 4.193-21.882.813-3.028-3.9-4.33-4.713-1.303"/><path fill="#000" d="M109.642 109.419c.455.359 2.568 1.824 2.081 2.605-.39.652-2.503.912-3.186 1.238-2.796 1.27-4.388 4.33-6.631 6.317-3.674 3.256-10.825 5.6-14.27.618-1.789-2.572-6.015-.13-4.227 2.475 2.308 3.354 6.046 5.178 10.11 5.275 4.29.13 8.224-1.856 11.41-4.558 1.658-1.401 2.925-3.094 4.388-4.689 1.203-1.335 2.828-1.401 4.389-2.182 1.788-.912 2.958-2.67 2.925-4.689-.032-2.507-1.723-4.363-3.575-5.829-1.041-.846-2.439-1.009-3.446 0-.813.814-.975 2.605.032 3.419M121.475 106.326c4.128-1.433 9.037.098 11.215 4.038s.715 8.922-2.633 11.657c-1.04.846-.845 2.572 0 3.451 1.008 1.042 2.438.814 3.446 0 5.071-4.102 6.566-11.852 3.413-17.551-3.153-5.731-10.63-8.4-16.741-6.284-2.926 1.009-1.658 5.731 1.3 4.689M149.756 71.322c4.453 1.074 7.867 5.535 7.314 10.191-.683 5.927-6.339 9.802-10.825 12.895-2.568 1.791-.13 6.024 2.471 4.233 6.111-4.233 12.807-9.41 13.263-17.486.39-6.642-4.551-12.96-10.923-14.522-3.055-.75-4.356 3.94-1.3 4.689M107.432 140.288c4.031-1.367 6.859-4.428 10.499-6.48 2.308-1.302 5.949-2.246 8.517-1.107 3.381 1.531.455 5.764-1.397 7.164-3.739 2.833-8.712 4.461-13.101 5.829-5.591 1.758-11.41 2.8-17.196 1.432-3.056-.716-4.356 3.973-1.3 4.722 6.241 1.465 12.58.716 18.659-1.075 5.461-1.628 11.605-3.679 16.123-7.261 3.771-2.963 6.307-8.499 3.121-12.862-2.568-3.549-7.542-3.68-11.443-2.8-2.438.553-4.648 1.693-6.664 3.158-2.275 1.628-4.42 3.647-7.119 4.526-2.958 1.042-1.69 5.764 1.301 4.754M136.07 137.879c-.39 3.256-2.34 6.252-5.038 8.043-2.601 1.758-.163 5.991 2.47 4.233 4.259-2.866 6.827-7.197 7.444-12.276.163-1.303-1.235-2.442-2.438-2.442-1.43 0-2.275 1.139-2.438 2.442M107.594 177.767c-2.568 6.578-5.851 14.881-13.393 16.998-6.339 1.791-12.19-3.224-13.588-9.215-.715-3.061-5.428-1.759-4.713 1.302 1.918 8.271 10.077 14.588 18.659 12.862 9.947-2.019 14.433-12.178 17.749-20.644.487-1.238-.521-2.67-1.691-2.996-1.398-.423-2.568.456-3.023 1.693M101.19 3.071c.813 4.982-3.9 8.825-7.704 10.941-4.323 2.41-9.427 3.875-12.84 7.62-1.56 1.726-2.73 3.875-2.763 6.252-.033 2.41 1.138 4.46 2.405 6.414 1.236 1.922 2.146 3.647 1.3 5.96-.877 2.409-2.86 4.395-4.648 6.153-2.243 2.215 1.203 5.666 3.446 3.452 3.738-3.712 7.867-8.824 5.981-14.457-.78-2.312-2.698-4.038-3.446-6.35-.682-2.15.91-3.973 2.47-5.21 2.081-1.66 4.65-2.703 7.022-3.842 2.568-1.238 5.071-2.54 7.314-4.299 4.324-3.354 7.087-8.4 6.177-13.936-.52-3.094-5.201-1.791-4.714 1.302"/><path fill="#000" d="M100.41 123.714c3.153 0 3.153-4.884 0-4.884s-3.153 4.884 0 4.884"/></svg>
